icons/latex.svg

<svg width="16" height="16" viewBox="0 0 16 16" fill="none" xmlns="http://www.w3.org/2000/svg">
<path fill-rule="evenodd" clip-rule="evenodd" d="M3.05443 2.80269C3.57416 2.45621 4.92808 3.222 6.13987 4.2632C5.66094 2.26979 6.19446 1.82185 8.23514 5.39304C8.65227 6.12302 9.10047 6.77234 9.47432 7.28629C9.52605 7.23944 9.57702 7.18131 9.63212 7.11848C9.68029 7.06354 9.73162 7.005 9.78936 6.94726C9.91166 6.82496 10.034 6.67379 10.1631 6.5142C10.5809 5.99774 11.0701 5.39305 11.8616 5.39305C12.7458 5.39305 13.1584 5.91697 13.323 6.40598L14.9035 6.80108C15.0551 6.839 15.0546 7.05595 14.9033 7.09521C14.182 7.28236 13.6027 7.45372 13.0688 7.65638C13.0067 7.68264 12.9427 7.7076 12.8781 7.73281C12.8372 7.74877 12.7959 7.76487 12.7549 7.78141C12.698 7.80518 12.6413 7.82943 12.5849 7.85424C12.1987 8.03323 11.8616 8.30683 11.8616 9.01955C11.8616 12.1975 10.2095 12.6125 6.90532 13.4424C6.07212 13.6516 5.13387 13.8873 4.09057 14.2003C3.74543 13.8551 4.33092 13.589 4.75299 13.3971C4.96445 13.301 5.13489 13.2235 5.12671 13.1641C5.10691 13.0204 4.78276 12.9663 4.48853 12.9172C4.15487 12.8615 3.8597 12.8123 4.09057 12.646C5.27074 12.646 7.199 11.6099 7.199 10.0557C6.68093 10.5738 4.52503 11.6099 3.48888 11.6099C3.44852 11.5897 3.55106 11.4729 3.68403 11.3214C3.90022 11.075 4.19684 10.737 4.09057 10.5738C4.04144 10.4983 3.58328 10.5379 3.10976 10.5788C2.60012 10.6229 2.07268 10.6684 2.01829 10.5738C1.96742 10.4852 2.39245 10.262 2.81124 10.0421C3.21678 9.82909 3.61646 9.6192 3.57249 9.53762C3.52068 9.44147 3.07918 9.37571 2.61637 9.30677C2.1026 9.23024 1.56257 9.1498 1.50022 9.01955C1.44572 8.90569 1.83564 8.72323 2.23922 8.53437C2.67001 8.33278 3.11637 8.1239 3.05442 7.9834C2.97599 7.80554 2.59807 7.75956 2.23429 7.71529C1.87613 7.67171 1.53167 7.62979 1.50021 7.46533C1.42046 7.0484 2.12922 7.03008 2.61634 7.01749C2.86964 7.01094 3.06301 7.00595 3.05442 6.94726C3.02973 6.7784 2.65589 6.47983 2.28108 6.18049C1.89437 5.87164 1.50662 5.56196 1.50021 5.39305C1.48906 5.09914 1.95328 5.19711 2.41751 5.29508C2.64962 5.34406 2.88173 5.39305 3.05442 5.39305C3.08919 5.19824 2.78736 4.89236 2.49601 4.5971C2.18712 4.28407 1.89001 3.98298 2.01829 3.83883C2.21963 3.61258 3.57249 4.3569 3.57249 4.3569C3.64458 4.27857 3.47996 3.94358 3.31284 3.60349C3.13419 3.23992 2.95267 2.87053 3.05443 2.80269ZM11.8616 6.94726C12.1478 6.94726 12.3797 6.71531 12.3797 6.42919C12.3797 6.14307 12.1478 5.91112 11.8616 5.91112C11.5755 5.91112 11.3436 6.14307 11.3436 6.42919C11.3436 6.71531 11.5755 6.94726 11.8616 6.94726Z" fill="#0B9E9E"/>
</svg>

<svg xmlns="http://www.w3.org/2000/svg" width="16" height="16" fill="none"><path fill="#0B9E9E" fill-rule="evenodd" d="M3.054 2.803c.52-.347 1.874.419 3.086 1.46-.48-1.993.054-2.441 2.095 1.13.417.73.865 1.38 1.24 1.893.051-.047.102-.105.157-.168.048-.054.1-.113.157-.17a5.67 5.67 0 0 0 .374-.434c.418-.516.907-1.121 1.699-1.121.884 0 1.296.524 1.461 1.013l1.58.395c.152.038.152.255 0 .294-.721.187-1.3.359-1.834.561-.062.027-.126.052-.19.077l-.124.048a9.89 9.89 0 0 0-.17.073c-.386.18-.723.453-.723 1.166 0 3.178-1.652 3.593-4.957 4.422a61.9 61.9 0 0 0-2.814.758c-.346-.345.24-.611.662-.803.211-.096.382-.174.374-.233-.02-.144-.344-.198-.638-.247-.334-.056-.63-.105-.398-.271 1.18 0 3.108-1.036 3.108-2.59-.518.518-2.674 1.554-3.71 1.554-.04-.02.062-.137.195-.289.216-.246.513-.584.407-.747-.05-.076-.508-.036-.981.005-.51.044-1.037.09-1.092-.005-.05-.089.374-.312.793-.532.406-.213.805-.423.761-.504-.051-.097-.493-.162-.956-.231C2.103 9.23 1.563 9.15 1.5 9.02c-.054-.114.336-.297.74-.486.43-.201.876-.41.814-.55-.078-.178-.456-.224-.82-.269-.358-.043-.702-.085-.734-.25-.08-.417.63-.435 1.116-.448.254-.006.447-.011.438-.07-.024-.169-.398-.467-.773-.767-.387-.308-.774-.618-.78-.787-.012-.294.452-.196.917-.098.232.05.464.098.636.098.035-.195-.267-.5-.558-.796-.309-.313-.606-.614-.478-.758.202-.226 1.554.518 1.554.518.073-.078-.092-.413-.26-.754-.178-.363-.36-.732-.258-.8Zm8.808 4.144a.518.518 0 1 0 0-1.036.518.518 0 0 0 0 1.036Z" clip-rule="evenodd"/></svg>
